markup/sourceimages/icon9.svg

<svg xmlns="http://www.w3.org/2000/svg" width="4" height="38"><path fill-rule="evenodd" fill="#D3D3D3" d="M2.22 28.827c-.769 0-1.393-.564-1.393-1.26 0-.696.624-1.26 1.393-1.26s1.392.564 1.392 1.26c0 .696-.623 1.26-1.392 1.26zm0-8.771c-.769 0-1.393-.564-1.393-1.26 0-.696.624-1.26 1.393-1.26s1.392.564 1.392 1.26c0 .696-.623 1.26-1.392 1.26zm0-8.771c-.769 0-1.393-.564-1.393-1.26 0-.695.624-1.259 1.393-1.259s1.392.564 1.392 1.259c0 .696-.623 1.26-1.392 1.26zm0-8.77c-.769 0-1.393-.564-1.393-1.26 0-.696.624-1.26 1.393-1.26s1.392.564 1.392 1.26c0 .696-.623 1.26-1.392 1.26zm0 32.562c.769 0 1.392.564 1.392 1.26 0 .696-.623 1.26-1.392 1.26-.769 0-1.393-.564-1.393-1.26 0-.696.624-1.26 1.393-1.26z"/></svg>

<svg 
 xmlns="http://www.w3.org/2000/svg"
 xmlns:xlink="http://www.w3.org/1999/xlink"
 width="4px" height="38px">
<path fill-rule="evenodd"  fill="rgb(211, 211, 211)"
 d="M2.220,28.827 C1.451,28.827 0.827,28.263 0.827,27.567 C0.827,26.871 1.451,26.307 2.220,26.307 C2.989,26.307 3.612,26.871 3.612,27.567 C3.612,28.263 2.989,28.827 2.220,28.827 ZM2.220,20.056 C1.451,20.056 0.827,19.492 0.827,18.796 C0.827,18.100 1.451,17.536 2.220,17.536 C2.989,17.536 3.612,18.100 3.612,18.796 C3.612,19.492 2.989,20.056 2.220,20.056 ZM2.220,11.285 C1.451,11.285 0.827,10.721 0.827,10.025 C0.827,9.330 1.451,8.766 2.220,8.766 C2.989,8.766 3.612,9.330 3.612,10.025 C3.612,10.721 2.989,11.285 2.220,11.285 ZM2.220,2.515 C1.451,2.515 0.827,1.951 0.827,1.255 C0.827,0.559 1.451,-0.005 2.220,-0.005 C2.989,-0.005 3.612,0.559 3.612,1.255 C3.612,1.951 2.989,2.515 2.220,2.515 ZM2.220,35.077 C2.989,35.077 3.612,35.641 3.612,36.337 C3.612,37.033 2.989,37.597 2.220,37.597 C1.451,37.597 0.827,37.033 0.827,36.337 C0.827,35.641 1.451,35.077 2.220,35.077 Z"/>
</svg>
